X:1
T:Title
%%score { ( 1 3 ) | ( 2 4 ) }
L:1/8
M:4/4
K:G
V:1 treble nm="Grand Piano"
V:3 treble 
V:2 bass 
V:4 bass 
V:1
 z4 z2[Q:1/4=100] [B,D]2 | [DB]3 [Ec] [DB][CA] [B,G]>[CA] | [B,G]4- [B,G][B,D][DG]A | B2 d2 c2 B2 | %4
 A6 A2 | c3 B BA B>[=Fd] | d4 z4 | [B,DG]2 [DGB]2 [CFA]3 [B,G] |[M:3/4] [B,G]6 |[M:1/4] [DB]2 | %10
[M:4/4] [Ec]3 [Ec] [EG]2 [^DA]2 | [DB]6 z2 | [FA]3 [FA] [Ac]2 [GB]2 | A-[DA-] A->[^CA] A2 [Fc]2 | %14
 B2 d2 B2 F-[FB] |[M:9/8] G2 A B [Ec]2- [Ec][DB][CA] | %16
[M:4/4] [B,DG]2 [DGB]2 [CFA]3 [B,G][Q:1/4=98][Q:1/4=97][Q:1/4=95][Q:1/4=94][Q:1/4=92][Q:1/4=91][Q:1/4=89][Q:1/4=88][Q:1/4=86][Q:1/4=84][Q:1/4=83][Q:1/4=81][Q:1/4=80][Q:1/4=78][Q:1/4=77] | %17
[M:3/4] [B,G]6 |] %18
V:2
 z4 z2 [G,,G,]2 | [G,,G,]3 [G,,G,] [G,,G,][G,,D,] [G,,D,]>[G,,D,] | %2
 [G,,D,]4- [G,,D,][G,,G,][B,,G,][D,F,D] | [G,D]2 [G,B,D]2 [F,A,D]2 [G,D]2 | [D,F,D]6 [D,F,D]2 | %5
 [D,A,D]3 [D,G,D] [D,F,D][D,F,D] [G,D]>[B,,G,] | z4[K:treble] c2[K:bass] C,2 | D,2 D,2 D,3 G,, | %8
[M:3/4] G,,6 |[M:1/4] G,2 |[M:4/4] [C,G,]3 [C,G,] [C,G,]2 [C,G,]2 | %11
 [G,,G,]G,, G,,>G,, G,,2 [G,B,D]2 | [D,D]3 [D,D] [D,D]2 [D,D]2 | [D,D]D, [E,^C]>E, [F,D]2 [D,D]2 | %14
 [G,DG]2 [G,B,G]2 [G,DG]2[K:bass] z D |[M:9/8] [E,B,E]2 [C,A,] [B,,^G,] [A,,A,]2- [A,,A,]B,,C, | %16
[M:4/4] D,2 D,2 D,3 G,, |[M:3/4] G,,6 |] %18
V:3
 x8 | x8 | x8 | x8 | x8 | x8 | E6 [CEA]2 | x8 |[M:3/4] x6 |[M:1/4] x2 |[M:4/4] x8 | %11
 z G, G,>G, G,2 G2 | x8 | F2 G2 z4 | z4 z2 .[CA]2 |[M:9/8] z2 E- E z z z E2 |[M:4/4] x8 | %17
[M:3/4] x6 |] %18
V:4
 x8 | x8 | x8 | x8 | x8 | x8 | [C,G,]6[K:treble][K:bass] z2 | x8 |[M:3/4] x6 |[M:1/4] x2 | %10
[M:4/4] x8 | x8 | x8 | x8 | z4 z2[K:bass] D,2 |[M:9/8] x9 |[M:4/4] x8 |[M:3/4] x6 |] %18

